X:1
T:Title
%%score { ( 1 3 ) | ( 2 4 ) }
L:1/8
M:4/4
K:Eb
V:1 treble nm="Grand Piano"
V:3 treble 
V:2 bass 
V:4 bass 
V:1
 z4 z2[Q:1/4=100] [EG][FA] | [GB]3 B c2 B2 | B2 G4 GG | [DA]3 [DG] [DA]2 [DB]2 |[M:3/4] [EG]6 | %5
[M:1/4] [GB][GB] |[M:4/4] [Ge]3 [Gd] [Ac]2 [GB]2 | [GB]2 [B,EG]4 [B,EG][B,EG] | %8
 [=A,EG]3 [A,EF] [A,EF]2 [A,EG]2 |[M:7/8] [DF]- [D-F]3 [DA]2- [DA-]/A/ |[M:6/8] G3 z3 | G6 | %12
 G3 z3 | A6 | [DF]3 [DF][DG][DA] | [DA]3 [Dc]3 | [Dc]3 [B,DA]3 | G6 | G3 z3 | G6 | e3 [Ad]2 [B_d] | %21
 c3- c2 c | c3 B2 G | [DG]3- [DG]2 [DF] | E6- | E6 |] %26
V:2
 z4 z2 [E,B,][E,B,] | [E,B,]3 [E,G,E] [E,A,E]2 [E,G,E]2 | [E,G,E]2 [E,B,E]4 [E,B,E][E,B,E] | %3
 [B,,B,]3 [B,,B,] [B,,B,]2 [B,,B,]2 |[M:3/4] [E,B,]6 |[M:1/4] [E,B,][E,B,] | %6
[M:4/4] [E,B,]3 [E,B,] [E,E]2 [E,E]2 | [E,E]2 E,4 E,E, | C,3 C, C,2 C,2 | %9
[M:7/8] B,,-B,,-B,,- B,,- B,,3 |[M:6/8] [E,B,E][E,B,][E,B,] .[E,A,E]3 | %11
 [E,B,E][E,B,][E,B,] [E,B,]3 | [E,B,E][E,B,][E,B,] .[E,A,E]3 | [B,,B,][B,,B,][B,,B,] [B,,B,]3 | %14
 [B,,A,]3 [B,,A,][B,,G,][B,,F,] | [B,,F,]3 [B,,A,]3 | [B,,A,]3 B,,C,D, | [E,B,E]6 | %18
 [E,B,E][E,B,][E,B,] .[E,A,E]3 | [E,B,E][E,B,][E,B,] [E,B,]3 | [B,G]3 [F,B,]2[K:treble] [G,E] | %21
 [A,EA]3- [A,EA]2 [=A,E_G] | [B,EG]3 [B,EG]2[K:bass] [B,E] | [B,,B,]3- [B,,B,]2 [B,,A,] | G,3 z3 | %25
 [E,G,]6 |] %26
V:3
 x8 | x8 | x8 | x8 |[M:3/4] x6 |[M:1/4] x2 |[M:4/4] x8 | x8 | x8 |[M:7/8] B,-B,-B,- B,- B,3 | %10
[M:6/8] z EE c2 E | z EE E3 | z EE c2 E | DDD D3 | x6 | x6 | x6 | x6 | z EE c2 E | z EE E3 | x6 | %21
 x6 | x6 | x6 | z3 C3 | B,6 |] %26
V:4
 x8 | x8 | x8 | x8 |[M:3/4] x6 |[M:1/4] x2 |[M:4/4] x8 | x8 | x8 |[M:7/8] x7 |[M:6/8] x6 | x6 | %12
 x6 | x6 | x6 | x6 | x6 | x6 | x6 | x6 | x5[K:treble] x | x6 | x5[K:bass] x | x6 | E,3- [E,A,]3 | %25
 x6 |] %26

